app/assets/v2/images/products/hackathons-logo.svg

<?xml version="1.0" encoding="UTF-8"?>
<svg width="19px" height="25px" viewBox="0 0 19 25" version="1.1" xmlns="http://www.w3.org/2000/svg" xmlns:xlink="http://www.w3.org/1999/xlink">
    <!-- Generator: Sketch 55.2 (78181) - https://sketchapp.com -->
    <title>Group</title>
    <desc>Created with Sketch.</desc>
    <g id="Page-1" stroke="none" stroke-width="1" fill="none" fill-rule="evenodd">
        <g id="Group" transform="translate(1.000000, 1.000000)">
            <rect id="Rectangle" fill="#FFFFFF" fill-rule="nonzero" x="3.6" y="21.6" width="9.6" height="2.4" rx="1.2"></rect>
            <path d="M8.4,0 C13.0391919,0 16.8,3.7608081 16.8,8.4 C16.8,11.2541739 15.3765003,13.7758717 13.2007323,15.293862 L13.2,18 C13.2,18.6627417 12.6627417,19.2 12,19.2 L4.8,19.2 C4.1372583,19.2 3.6,18.6627417 3.6,18 L3.60027771,15.2945666 C1.42394022,13.7766521 -1.77635684e-15,11.2546156 -1.77635684e-15,8.4 C-1.77635684e-15,3.7608081 3.7608081,0 8.4,0 Z" id="Combined-Shape" stroke="#FFFFFF" stroke-width="1.68"></path>
            <path d="M10.1067184,3.31109393 C10.1609066,3.34979979 10.1867843,3.41709605 10.1724899,3.48213584 L9.17173245,8.03210116 L12.1868087,8.03210116 C12.2786647,8.03210116 12.3531287,8.10656516 12.3531287,8.19842116 C12.3531287,8.23308607 12.3422975,8.2668847 12.3221489,8.2950927 L7.04215448,15.6870849 C6.98876426,15.7618312 6.88488909,15.7791437 6.81014279,15.7257535 C6.75595459,15.6870476 6.73007687,15.6197514 6.74437133,15.5547116 L7.74373245,11.0041012 L4.73005245,11.0047463 C4.63819645,11.0047463 4.56373245,10.9302823 4.56373245,10.8384263 C4.56373245,10.8037614 4.57456373,10.7699627 4.5947123,10.7417547 L9.87470672,3.34976255 C9.92809693,3.27501624 10.0319721,3.25770372 10.1067184,3.31109393 Z" id="Combined-Shape" fill="#FFFFFF" fill-rule="nonzero"></path>
        </g>
    </g>
</svg>

<svg width="19" height="25" xmlns="http://www.w3.org/2000/svg"><g transform="translate(1 1)" fill="none" fill-rule="evenodd"><rect fill="#FFF" fill-rule="nonzero" x="3.6" y="21.6" width="9.6" height="2.4" rx="1.2"/><path d="M8.4 0a8.4 8.4 0 014.8 15.294V18a1.2 1.2 0 01-1.2 1.2H4.8A1.2 1.2 0 013.6 18v-2.705A8.4 8.4 0 018.4 0z" stroke="#FFF" stroke-width="1.68"/><path d="M10.107 3.311c.054.039.08.106.065.171l-1 4.55h3.015a.166.166 0 01.135.263l-5.28 7.392a.166.166 0 01-.298-.132l1-4.55H4.73a.166.166 0 01-.135-.263l5.28-7.392a.166.166 0 01.232-.039z" fill="#FFF" fill-rule="nonzero"/></g></svg>
